assets/icons/spotify.svg

<svg xml:space="preserve" fill="#ebebeb" style="fill-rule:evenodd;clip-rule:evenodd;stroke-linejoin:round;stroke-miterlimit:2" viewBox="0 0 219 212" xmlns="http://www.w3.org/2000/svg"><path d="M90.582 72.604h218.891v211.112H90.582z" style="fill:none" transform="translate(-90.582 -72.605)"/><path d="M83.996.277C37.747.277.253 37.77.253 84.019c0 46.251 37.494 83.741 83.743 83.741 46.254 0 83.744-37.49 83.744-83.741 0-46.246-37.49-83.738-83.745-83.738zm38.404 120.78a5.217 5.217 0 0 1-7.18 1.73c-19.662-12.01-44.414-14.73-73.564-8.07a5.22 5.22 0 0 1-6.249-3.93 5.213 5.213 0 0 1 3.926-6.25c31.9-7.288 59.263-4.15 81.337 9.34 2.46 1.51 3.24 4.72 1.73 7.18m10.25-22.802c-1.89 3.072-5.91 4.042-8.98 2.152-22.51-13.836-56.823-17.843-83.448-9.761-3.453 1.043-7.1-.903-8.148-4.35a6.54 6.54 0 0 1 4.354-8.143c30.413-9.228 68.222-4.758 94.072 11.127 3.07 1.89 4.04 5.91 2.15 8.976zm.88-23.744c-26.99-16.031-71.52-17.505-97.289-9.684-4.138 1.255-8.514-1.081-9.768-5.219a7.835 7.835 0 0 1 5.221-9.771c29.581-8.98 78.756-7.245 109.83 11.202a7.823 7.823 0 0 1 2.74 10.733c-2.2 3.722-7.02 4.949-10.73 2.739z" style="fill:#fff;fill-rule:nonzero" transform="translate(25.449 21.537)"/></svg>

<?xml version="1.0" encoding="UTF-8" standalone="no"?>
<!DOCTYPE svg PUBLIC "-//W3C//DTD SVG 1.1//EN" "http://www.w3.org/Graphics/SVG/1.1/DTD/svg11.dtd">
<svg width="100%" height="100%" viewBox="0 0 219 212" version="1.1" xmlns="http://www.w3.org/2000/svg" xmlns:xlink="http://www.w3.org/1999/xlink" xml:space="preserve" xmlns:serif="http://www.serif.com/" style="fill-rule:evenodd;clip-rule:evenodd;stroke-linejoin:round;stroke-miterlimit:2;">
    <g id="Artboard1" transform="matrix(1,0,0,1,-90.5822,-72.6045)">
        <rect x="90.582" y="72.604" width="218.891" height="211.112" style="fill:none;"/>
        <g transform="matrix(1,0,0,1,116.031,94.1418)">
            <path d="M83.996,0.277C37.747,0.277 0.253,37.77 0.253,84.019C0.253,130.27 37.747,167.76 83.996,167.76C130.25,167.76 167.74,130.27 167.74,84.019C167.74,37.773 130.25,0.281 83.995,0.281L83.996,0.277ZM122.4,121.057C120.9,123.517 117.68,124.297 115.22,122.787C95.558,110.777 70.806,108.057 41.656,114.717C38.847,115.357 36.047,113.597 35.407,110.787C34.764,107.977 36.517,105.177 39.333,104.537C71.233,97.249 98.596,100.387 120.67,113.877C123.13,115.387 123.91,118.597 122.4,121.057ZM132.65,98.255C130.76,101.327 126.74,102.297 123.67,100.407C101.16,86.571 66.847,82.564 40.222,90.646C36.769,91.689 33.122,89.743 32.074,86.296C31.034,82.843 32.981,79.203 36.428,78.153C66.841,68.925 104.65,73.395 130.5,89.28C133.57,91.17 134.54,95.19 132.65,98.256L132.65,98.255ZM133.53,74.511C106.54,58.48 62.01,57.006 36.241,64.827C32.103,66.082 27.727,63.746 26.473,59.608C25.219,55.468 27.553,51.095 31.694,49.837C61.275,40.857 110.45,42.592 141.524,61.039C145.254,63.248 146.474,68.055 144.264,71.772C142.064,75.494 137.244,76.721 133.534,74.511L133.53,74.511Z" style="fill:white;fill-rule:nonzero;"/>
        </g>
    </g>
</svg>
